; generated by Slic3r 1.2.9 on 2017-09-10 at 11:47:20

; external perimeters extrusion width = 0.40mm
; perimeters extrusion width = 0.68mm
; infill extrusion width = 1.28mm
; solid infill extrusion width = 0.68mm
; top infill extrusion width = 0.68mm

M107
;This Gcode has been generated specifically for the CREATABLE D3
;Basic settings: Layer height: {layer_height} Walls: {wall_thickness} Fill: {fill_density}
;Filament Diameter: {filament_diameter}
;Nozzle Size: {nozzle_size}
;Print time: {print_time}
G21                          ; metric values
G90                          ; absolute positioning
M82                          ; set extruder to absolute mode
M106 S255                    ; start with the fan on
G28						 ; Go Home
G92 E0                       ; set extruder position to 0
G1 Z100 F5000
M190 S75      ; get bed heating up and wait
M109 S210    ; set extruder temp and wait
G1 X-135
G1 Z0.3
G92 E-32
G1 E0 F1000
G1 E50 F200
G1 F1000
G1 X-125
G92 E0
G21 ; set units to millimeters
G90 ; use absolute coordinates
M82 ; use absolute distances for extrusion
G92 E0
G1 Z0.350 F9000.000
G1 X0.000 Y24.625 F9000.000
G1 X-75.000 Y24.625 E6.81972 F1800.000
G1 X-77.259 Y24.228 E7.02826
G1 X-79.247 Y23.085 E7.23680
G1 X-80.726 Y21.332 E7.44535
G1 X-81.519 Y19.180 E7.65389
G1 X-81.625 Y18.000 E7.76160
G1 X-81.625 Y-18.000 E11.03506
G1 X-81.228 Y-20.259 E11.24360
G1 X-80.085 Y-22.247 E11.45215
G1 X-78.332 Y-23.726 E11.66069
G1 X-76.180 Y-24.519 E11.86923
G1 X-75.000 Y-24.625 E11.97694
G1 X75.000 Y-24.625 E25.61638
G1 X77.259 Y-24.228 E25.82492
G1 X79.247 Y-23.085 E26.03346 F1800.000
G1 X80.726 Y-21.332 E26.24200
G1 X81.519 Y-19.180 E26.45055
G1 X81.625 Y-18.000 E26.55826
G1 X81.625 Y18.000 E29.83172
G1 X81.228 Y20.259 E30.04026
G1 X80.085 Y22.247 E30.24881
G1 X78.332 Y23.726 E30.45735
G1 X76.180 Y24.519 E30.66589
G1 X75.000 Y24.625 E30.77360
G1 X0.060 Y24.625 E37.58786
G1 E35.58786 F2400.00000
G92 E0
G1 X-73.400 Y16.400 F9000.000
G1 E2.00000 F2400.00000
G1 X-73.400 Y-16.400 E4.98253 F1800.000
G1 X73.400 Y-16.400 E18.33103
G1 X73.400 Y16.400 E21.31356
G1 X-73.340 Y16.400 E34.65661
G1 X-74.025 Y17.025 F9000.000
G1 X-74.025 Y-17.025 E37.75278 F1800.000
G1 X74.025 Y-17.025 E51.21493
G1 X74.025 Y17.025 E54.31110
G1 X-73.965 Y17.025 E67.76779
G1 X-74.650 Y17.650 F9000.000
G1 X-74.650 Y-17.650 E70.97760 F1800.000
G1 X74.650 Y-17.650 E84.55339
G1 X74.650 Y17.650 E87.76320
G1 X-74.590 Y17.650 E101.33353
G1 X-74.450 Y17.304 F9000.000
G1 X-73.022 Y15.717 F9000.000
G1 X-72.717 Y16.022 E101.37292 F1800.000
G1 X-71.829 Y16.022 E101.45394
G1 X-73.022 Y14.829 E101.60791
G1 X-73.022 Y13.942 E101.68893
G1 X-70.942 Y16.022 E101.95748
G1 X-70.054 Y16.022 E102.03851
G1 X-73.022 Y13.054 E102.42164
G1 X-73.022 Y12.167 E102.50267
G1 X-69.167 Y16.022 E103.00039
G1 X-68.280 Y16.022 E103.08141
G1 X-73.022 Y11.280 E103.69371
G1 X-73.022 Y10.392 E103.77474
G1 X-67.392 Y16.022 E104.50163
G1 X-66.505 Y16.022 E104.58265
G1 X-73.022 Y9.505 E105.42412
G1 X-73.022 Y8.618 E105.50514
G1 X-65.618 Y16.022 E106.46120
G1 X-64.730 Y16.022 E106.54222
G1 X-73.022 Y7.730 E107.61286
G1 X-73.022 Y6.843 E107.69389
G1 X-63.843 Y16.022 E108.87911
G1 X-62.955 Y16.022 E108.96013
G1 X-73.022 Y5.955 E110.25994
G1 X-73.022 Y5.068 E110.34096
G1 X-62.068 Y16.022 E111.75535
G1 X-61.181 Y16.022 E111.83638
G1 X-73.022 Y4.181 E113.36535
G1 X-73.022 Y3.293 E113.44638
G1 X-60.293 Y16.022 E115.08993
G1 X-59.406 Y16.022 E115.17096
G1 X-73.022 Y2.406 E116.92910
G1 X-73.022 Y1.519 E117.01012
G1 X-58.519 Y16.022 E118.88285
G1 X-57.631 Y16.022 E118.96387
G1 X-73.022 Y0.631 E120.95118
G1 X-73.022 Y-0.256 E121.03221
G1 X-56.744 Y16.022 E123.13410
G1 X-55.856 Y16.022 E123.21512
G1 X-73.022 Y-1.144 E125.43160
G1 X-73.022 Y-2.031 E125.51263
G1 X-54.969 Y16.022 E127.84369
G1 X-54.082 Y16.022 E127.92471
G1 X-73.022 Y-2.918 E130.37036
G1 X-73.022 Y-3.806 E130.45138
G1 X-53.194 Y16.022 E133.01161
G1 X-52.307 Y16.022 E133.09263
G1 X-73.022 Y-4.693 E135.76745
G1 X-73.022 Y-5.581 E135.84847
G1 X-51.419 Y16.022 E138.63787
G1 X-50.532 Y16.022 E138.71889
G1 X-73.022 Y-6.468 E141.62287
G1 X-73.022 Y-7.355 E141.70390
G1 X-49.645 Y16.022 E144.72246
G1 X-48.757 Y16.022 E144.80349
G1 X-73.022 Y-8.243 E147.93664
G1 X-73.022 Y-9.130 E148.01766
G1 X-47.870 Y16.022 E151.26539
G1 X-46.983 Y16.022 E151.34642
G1 X-73.022 Y-10.017 E154.70873
G1 X-73.022 Y-10.905 E154.78976
G1 X-46.095 Y16.022 E158.26666
G1 X-45.208 Y16.022 E158.34768
G1 X-73.022 Y-11.792 E161.93917
G1 X-73.022 Y-12.680 E162.02019
G1 X-44.320 Y16.022 E165.72626
G1 X-43.433 Y16.022 E165.80728
G1 X-73.022 Y-13.567 E169.62793
G1 X-73.022 Y-14.454 E169.70896
G1 X-42.546 Y16.022 E173.64419
G1 X-41.658 Y16.022 E173.72522
G1 X-73.022 Y-15.342 E177.77504
G1 X-72.814 Y-16.022 E177.83994
G1 X-40.771 Y16.022 E181.97755
G1 X-39.883 Y16.022 E182.05858
G1 X-71.927 Y-16.022 E186.19619
G1 X-71.039 Y-16.022 E186.27721
G1 X-38.996 Y16.022 E190.41483
G1 X-38.109 Y16.022 E190.49585
G1 X-70.152 Y-16.022 E194.63346
G1 X-69.265 Y-16.022 E194.71449
G1 X-37.221 Y16.022 E198.85210
G1 X-36.334 Y16.022 E198.93312
G1 X-68.377 Y-16.022 E203.07074
G1 X-67.490 Y-16.022 E203.15176
G1 X-35.447 Y16.022 E207.28937
G1 X-34.559 Y16.022 E207.37039
G1 X-66.602 Y-16.022 E211.50801
G1 X-65.715 Y-16.022 E211.58903
G1 X-33.672 Y16.022 E215.72664
G1 X-32.784 Y16.022 E215.80767
G1 X-64.828 Y-16.022 E219.94528
G1 X-63.940 Y-16.022 E220.02630
G1 X-31.897 Y16.022 E224.16392
G1 X-31.010 Y16.022 E224.24494
G1 X-63.053 Y-16.022 E228.38255
G1 X-62.166 Y-16.022 E228.46357
G1 X-30.122 Y16.022 E232.60119
G1 X-29.235 Y16.022 E232.68221
G1 X-61.278 Y-16.022 E236.81982
G1 X-60.391 Y-16.022 E236.90085
G1 X-28.348 Y16.022 E241.03846
G1 X-27.460 Y16.022 E241.11948
G1 X-59.503 Y-16.022 E245.25710
G1 X-58.616 Y-16.022 E245.33812
G1 X-26.573 Y16.022 E249.47573
G1 X-25.685 Y16.022 E249.55675
G1 X-57.729 Y-16.022 E253.69437
G1 X-56.841 Y-16.022 E253.77539
G1 X-24.798 Y16.022 E257.91300
G1 X-23.911 Y16.022 E257.99403
G1 X-55.954 Y-16.022 E262.13164
G1 X-55.067 Y-16.022 E262.21266
G1 X-23.023 Y16.022 E266.35028
G1 X-22.136 Y16.022 E266.43130
G1 X-54.179 Y-16.022 E270.56891
G1 X-53.292 Y-16.022 E270.64994
G1 X-21.248 Y16.022 E274.78755
G1 X-20.361 Y16.022 E274.86857
G1 X-52.404 Y-16.022 E279.00618
G1 X-51.517 Y-16.022 E279.08721
G1 X-19.474 Y16.022 E283.22482
G1 X-18.586 Y16.022 E283.30584
G1 X-50.630 Y-16.022 E287.44346
G1 X-49.742 Y-16.022 E287.52448
G1 X-17.699 Y16.022 E291.66209
G1 X-16.812 Y16.022 E291.74312
G1 X-48.855 Y-16.022 E295.88073
G1 X-47.967 Y-16.022 E295.96175
G1 X-15.924 Y16.022 E300.09936
G1 X-15.037 Y16.022 E300.18039
G1 X-47.080 Y-16.022 E304.31800
G1 X-46.193 Y-16.022 E304.39902
G1 X-14.149 Y16.022 E308.53664
G1 X-13.262 Y16.022 E308.61766
G1 X-45.305 Y-16.022 E312.75527
G1 X-44.418 Y-16.022 E312.83630
G1 X-12.375 Y16.022 E316.97391
G1 X-11.487 Y16.022 E317.05493
G1 X-43.531 Y-16.022 E321.19254
G1 X-42.643 Y-16.022 E321.27357
G1 X-10.600 Y16.022 E325.41118
G1 X-9.712 Y16.022 E325.49220
G1 X-41.756 Y-16.022 E329.62982
G1 X-40.868 Y-16.022 E329.71084
G1 X-8.825 Y16.022 E333.84845
G1 X-7.938 Y16.022 E333.92948
G1 X-39.981 Y-16.022 E338.06709
G1 X-39.094 Y-16.022 E338.14811
G1 X-7.050 Y16.022 E342.28573
G1 X-6.163 Y16.022 E342.36675
G1 X-38.206 Y-16.022 E346.50436
G1 X-37.319 Y-16.022 E346.58538
G1 X-5.276 Y16.022 E350.72300
G1 X-4.388 Y16.022 E350.80402
G1 X-36.431 Y-16.022 E354.94163
G1 X-35.544 Y-16.022 E355.02266
G1 X-3.501 Y16.022 E359.16027
G1 X-2.613 Y16.022 E359.24129
G1 X-34.657 Y-16.022 E363.37891
G1 X-33.769 Y-16.022 E363.45993
G1 X-1.726 Y16.022 E367.59754
G1 X-0.839 Y16.022 E367.67856
G1 X-32.882 Y-16.022 E371.81618
G1 X-31.995 Y-16.022 E371.89720
G1 X0.049 Y16.022 E376.03481
G1 X0.936 Y16.022 E376.11584
G1 X-31.107 Y-16.022 E380.25345
G1 X-30.220 Y-16.022 E380.33447
G1 X1.823 Y16.022 E384.47209
G1 X2.711 Y16.022 E384.55311
G1 X-29.332 Y-16.022 E388.69072
G1 X-28.445 Y-16.022 E388.77175
G1 X3.598 Y16.022 E392.90936
G1 X4.486 Y16.022 E392.99038
G1 X-27.558 Y-16.022 E397.12799
G1 X-26.670 Y-16.022 E397.20902
G1 X5.373 Y16.022 E401.34663
G1 X6.260 Y16.022 E401.42765
G1 X-25.783 Y-16.022 E405.56527
G1 X-24.896 Y-16.022 E405.64629
G1 X7.148 Y16.022 E409.78390
G1 X8.035 Y16.022 E409.86493
G1 X-24.008 Y-16.022 E414.00254
G1 X-23.121 Y-16.022 E414.08356
G1 X8.923 Y16.022 E418.22117
G1 X9.810 Y16.022 E418.30220
G1 X-22.233 Y-16.022 E422.43981
G1 X-21.346 Y-16.022 E422.52083
G1 X10.697 Y16.022 E426.65845
G1 X11.585 Y16.022 E426.73947
G1 X-20.459 Y-16.022 E430.87708
G1 X-19.571 Y-16.022 E430.95811
G1 X12.472 Y16.022 E435.09572
G1 X13.359 Y16.022 E435.17674
G1 X-18.684 Y-16.022 E439.31435
G1 X-17.796 Y-16.022 E439.39538
G1 X14.247 Y16.022 E443.53299
G1 X15.134 Y16.022 E443.61401
G1 X-16.909 Y-16.022 E447.75163
G1 X-16.022 Y-16.022 E447.83265
G1 X16.022 Y16.022 E451.97026
G1 X16.909 Y16.022 E452.05128
G1 X-15.134 Y-16.022 E456.18890
G1 X-14.247 Y-16.022 E456.26992
G1 X17.796 Y16.022 E460.40753
G1 X18.684 Y16.022 E460.48856
G1 X-13.360 Y-16.022 E464.62617
G1 X-12.472 Y-16.022 E464.70719
G1 X19.571 Y16.022 E468.84481
G1 X20.459 Y16.022 E468.92583
G1 X-11.585 Y-16.022 E473.06344
G1 X-10.697 Y-16.022 E473.14446
G1 X21.346 Y16.022 E477.28208
G1 X22.233 Y16.022 E477.36310
G1 X-9.810 Y-16.022 E481.50071
G1 X-8.923 Y-16.022 E481.58174
G1 X23.121 Y16.022 E485.71935
G1 X24.008 Y16.022 E485.80037
G1 X-8.035 Y-16.022 E489.93799
G1 X-7.148 Y-16.022 E490.01901
G1 X24.895 Y16.022 E494.15662
G1 X25.783 Y16.022 E494.23764
G1 X-6.260 Y-16.022 E498.37526
G1 X-5.373 Y-16.022 E498.45628
G1 X26.670 Y16.022 E502.59389
G1 X27.558 Y16.022 E502.67492
G1 X-4.486 Y-16.022 E506.81253
G1 X-3.598 Y-16.022 E506.89355
G1 X28.445 Y16.022 E511.03117
G1 X29.332 Y16.022 E511.11219
G1 X-2.711 Y-16.022 E515.24980
G1 X-1.824 Y-16.022 E515.33082
G1 X30.220 Y16.022 E519.46844
G1 X31.107 Y16.022 E519.54946
G1 X-0.936 Y-16.022 E523.68707
G1 X-0.049 Y-16.022 E523.76810
G1 X31.994 Y16.022 E527.90571
G1 X32.882 Y16.022 E527.98673
G1 X0.839 Y-16.022 E532.12435
G1 X1.726 Y-16.022 E532.20537
G1 X33.769 Y16.022 E536.34298
G1 X34.657 Y16.022 E536.42400
G1 X2.613 Y-16.022 E540.56162
G1 X3.501 Y-16.022 E540.64264
G1 X35.544 Y16.022 E544.78025
G1 X36.431 Y16.022 E544.86128
G1 X4.388 Y-16.022 E548.99889
G1 X5.275 Y-16.022 E549.07991
G1 X37.319 Y16.022 E553.21753
G1 X38.206 Y16.022 E553.29855
G1 X6.163 Y-16.022 E557.43616
G1 X7.050 Y-16.022 E557.51719
G1 X39.094 Y16.022 E561.65480
G1 X39.981 Y16.022 E561.73582
G1 X7.938 Y-16.022 E565.87343
G1 X8.825 Y-16.022 E565.95446
G1 X40.868 Y16.022 E570.09207
G1 X41.756 Y16.022 E570.17309
G1 X9.712 Y-16.022 E574.31071
G1 X10.600 Y-16.022 E574.39173
G1 X42.643 Y16.022 E578.52934
G1 X43.530 Y16.022 E578.61037
G1 X11.487 Y-16.022 E582.74798
G1 X12.375 Y-16.022 E582.82900
G1 X44.418 Y16.022 E586.96661
G1 X45.305 Y16.022 E587.04764
G1 X13.262 Y-16.022 E591.18525
G1 X14.149 Y-16.022 E591.26627
G1 X46.193 Y16.022 E595.40389
G1 X47.080 Y16.022 E595.48491
G1 X15.037 Y-16.022 E599.62252
G1 X15.924 Y-16.022 E599.70355
G1 X47.967 Y16.022 E603.84116
G1 X48.855 Y16.022 E603.92218
G1 X16.811 Y-16.022 E608.05979
G1 X17.699 Y-16.022 E608.14082
G1 X49.742 Y16.022 E612.27843
G1 X50.629 Y16.022 E612.35945
G1 X18.586 Y-16.022 E616.49707
G1 X19.474 Y-16.022 E616.57809
G1 X51.517 Y16.022 E620.71570
G1 X52.404 Y16.022 E620.79673
G1 X20.361 Y-16.022 E624.93434
G1 X21.248 Y-16.022 E625.01536
G1 X53.292 Y16.022 E629.15297
G1 X54.179 Y16.022 E629.23400
G1 X22.136 Y-16.022 E633.37161
G1 X23.023 Y-16.022 E633.45263
G1 X55.066 Y16.022 E637.59025
G1 X55.954 Y16.022 E637.67127
G1 X23.910 Y-16.022 E641.80888
G1 X24.798 Y-16.022 E641.88991
G1 X56.841 Y16.022 E646.02752
G1 X57.729 Y16.022 E646.10854
G1 X25.685 Y-16.022 E650.24615
G1 X26.573 Y-16.022 E650.32718
G1 X58.616 Y16.022 E654.46479
G1 X59.503 Y16.022 E654.54581
G1 X27.460 Y-16.022 E658.68343
G1 X28.347 Y-16.022 E658.76445
G1 X60.391 Y16.022 E662.90206
G1 X61.278 Y16.022 E662.98308
G1 X29.235 Y-16.022 E667.12070
G1 X30.122 Y-16.022 E667.20172
G1 X62.165 Y16.022 E671.33933
G1 X63.053 Y16.022 E671.42036
G1 X31.010 Y-16.022 E675.55797
G1 X31.897 Y-16.022 E675.63899
G1 X63.940 Y16.022 E679.77661
G1 X64.828 Y16.022 E679.85763
G1 X32.784 Y-16.022 E683.99524
G1 X33.672 Y-16.022 E684.07626
G1 X65.715 Y16.022 E688.21388
G1 X66.602 Y16.022 E688.29490
G1 X34.559 Y-16.022 E692.43251
G1 X35.446 Y-16.022 E692.51354
G1 X67.490 Y16.022 E696.65115
G1 X68.377 Y16.022 E696.73217
G1 X36.334 Y-16.022 E700.86979
G1 X37.221 Y-16.022 E700.95081
G1 X69.265 Y16.022 E705.08842
G1 X70.152 Y16.022 E705.16944
G1 X38.109 Y-16.022 E709.30706
G1 X38.996 Y-16.022 E709.38808
G1 X71.039 Y16.022 E713.52569
G1 X71.927 Y16.022 E713.60672
G1 X39.883 Y-16.022 E717.74433
G1 X40.771 Y-16.022 E717.82535
G1 X72.814 Y16.022 E721.96296
G1 X73.022 Y15.342 E722.02786
G1 X41.658 Y-16.022 E726.07770
G1 X42.546 Y-16.022 E726.15872
G1 X73.022 Y14.454 E730.09397
G1 X73.022 Y13.567 E730.17499
G1 X43.433 Y-16.022 E733.99566
G1 X44.320 Y-16.022 E734.07668
G1 X73.022 Y12.680 E737.78277
G1 X73.022 Y11.792 E737.86379
G1 X45.208 Y-16.022 E741.45529
G1 X46.095 Y-16.022 E741.53631
G1 X73.022 Y10.905 E745.01323
G1 X73.022 Y10.018 E745.09425
G1 X46.982 Y-16.022 E748.45658
G1 X47.870 Y-16.022 E748.53760
G1 X73.022 Y9.130 E751.78535
G1 X73.022 Y8.243 E751.86637
G1 X48.757 Y-16.022 E754.99954
G1 X49.645 Y-16.022 E755.08056
G1 X73.022 Y7.355 E758.09914
G1 X73.022 Y6.468 E758.18016
G1 X50.532 Y-16.022 E761.08416
G1 X51.419 Y-16.022 E761.16518
G1 X73.022 Y5.581 E763.95459
G1 X73.022 Y4.693 E764.03561
G1 X52.307 Y-16.022 E766.71044
G1 X53.194 Y-16.022 E766.79147
G1 X73.022 Y3.806 E769.35171
G1 X73.022 Y2.918 E769.43273
G1 X54.081 Y-16.022 E771.87839
G1 X54.969 Y-16.022 E771.95942
G1 X73.022 Y2.031 E774.29049
G1 X73.022 Y1.144 E774.37151
G1 X55.856 Y-16.022 E776.58801
G1 X56.744 Y-16.022 E776.66903
G1 X73.022 Y0.256 E778.77094
G1 X73.022 Y-0.631 E778.85196
G1 X57.631 Y-16.022 E780.83929
G1 X58.518 Y-16.022 E780.92031
G1 X73.022 Y-1.518 E782.79305
G1 X73.022 Y-2.406 E782.87407
G1 X59.406 Y-16.022 E784.63223
G1 X60.293 Y-16.022 E784.71325
G1 X73.022 Y-3.293 E786.35683
G1 X73.022 Y-4.181 E786.43785
G1 X61.181 Y-16.022 E787.96684
G1 X62.068 Y-16.022 E788.04786
G1 X73.022 Y-5.068 E789.46227
G1 X73.022 Y-5.955 E789.54329
G1 X62.955 Y-16.022 E790.84311
G1 X63.843 Y-16.022 E790.92413
G1 X73.022 Y-6.843 E792.10937
G1 X73.022 Y-7.730 E792.19039
G1 X64.730 Y-16.022 E793.26105
G1 X65.617 Y-16.022 E793.34207
G1 X73.022 Y-8.617 E794.29814
G1 X73.022 Y-9.505 E794.37916
G1 X66.505 Y-16.022 E795.22065
G1 X67.392 Y-16.022 E795.30167
G1 X73.022 Y-10.392 E796.02857
G1 X73.022 Y-11.280 E796.10960
G1 X68.280 Y-16.022 E796.72191
G1 X69.167 Y-16.022 E796.80294
G1 X73.022 Y-12.167 E797.30067
G1 X73.022 Y-13.054 E797.38169
G1 X70.054 Y-16.022 E797.76484
G1 X70.942 Y-16.022 E797.84587
G1 X73.022 Y-13.942 E798.11443
G1 X73.022 Y-14.829 E798.19546
G1 X71.829 Y-16.022 E798.34944
G1 X72.717 Y-16.022 E798.43046
G1 X73.022 Y-15.717 E798.46986
G1 Z0.450 F9000.000
G1 X-73.623 Y16.623 F9000.000
G1 X-73.623 Y-16.623 E799.38010 F3600.000
G1 X73.623 Y-16.623 E803.41153
G1 X73.623 Y16.623 E804.32176
G1 X-73.563 Y16.623 E808.35155
G1 X-74.281 Y17.281 F9000.000
G1 X-74.281 Y-17.281 E809.29784 F3600.000
G1 X74.281 Y-17.281 E813.36533
G1 X74.281 Y17.281 E814.31163
G1 X-74.221 Y17.281 E818.37748
G1 X-74.800 Y17.800 F9000.000
G1 X-74.800 Y-17.800 E818.93774 F1800.000
G1 X74.800 Y-17.800 E821.29213
G1 X74.800 Y17.800 E821.85239
G1 X-74.740 Y17.800 E824.20583
G1 X-74.600 Y17.454 F9000.000
G1 X-71.970 Y-16.223 F9000.000
G1 X-73.223 Y-14.970 E824.25443 F1200.000
G1 X-73.223 Y-14.037 E824.28003
G1 X-71.037 Y-16.223 E824.36484
G1 X-70.104 Y-16.223 E824.39044
G1 X-73.223 Y-13.104 E824.51146
G1 X-73.223 Y-12.171 E824.53707
G1 X-69.171 Y-16.223 E824.69429
G1 X-68.237 Y-16.223 E824.71990
G1 X-73.223 Y-11.237 E824.91334
G1 X-73.223 Y-10.304 E824.93894
G1 X-67.304 Y-16.223 E825.16859
G1 X-66.371 Y-16.223 E825.19420
G1 X-73.223 Y-9.371 E825.46006
G1 X-73.223 Y-8.438 E825.48566
G1 X-65.438 Y-16.223 E825.78774
G1 X-64.504 Y-16.223 E825.81334
G1 X-73.223 Y-7.504 E826.15162
G1 X-73.223 Y-6.571 E826.17723
